src/assets/icons/pdf.svg

<?xml version="1.0" encoding="UTF-8" standalone="no"?>
<svg width="68px" height="90px" viewBox="0 0 68 90" version="1.1" xmlns="http://www.w3.org/2000/svg" xmlns:xlink="http://www.w3.org/1999/xlink" xmlns:sketch="http://www.bohemiancoding.com/sketch/ns">
    <!-- Generator: Sketch 3.4.4 (17249) - http://www.bohemiancoding.com/sketch -->
    <title>Slice 1</title>
    <desc>Created with Sketch.</desc>
    <defs></defs>
    <g id="Page-1" stroke-width="1" fill-rule="evenodd" sketch:type="MSPage">
        <g id="noun_128378_cc" sketch:type="MSLayerGroup">
            <g id="Group" sketch:type="MSShapeGroup">
                <g id="Shape">
                    <path d="M42.9926339,28 C41.3389342,28 40,26.6601521 40,25.0073661 L40,0 L3.6656805,0 C1.6411811,0 0,1.63894638 0,3.66768662 L0,86.3323134 C0,88.3579208 1.6472148,90 3.6800858,90 L64.3199142,90 C66.3523695,90 68,88.3473338 68,86.3223331 L68,28 L42.9926339,28 L42.9926339,28 L42.9926339,28 Z M49.912,63.4032258 C49.368,63.6774194 48.552,63.9516129 47.464,63.9516129 C45.288,63.9516129 42.024,63.4032258 39.304,62.0322581 C34.68,62.5806452 31.144,63.1290323 28.424,64.2258065 C28.152,64.2258065 28.152,64.2258065 27.88,64.5 C24.616,70.2580645 21.896,73 19.72,73 C19.176,73 18.904,73 18.632,72.7258065 L17.272,71.9032258 L17.272,71.6290323 C17,71.0806452 17,70.8064516 17,70.2580645 C17.272,68.8870968 18.904,66.4193548 22.168,64.5 C22.712,64.2258065 23.528,63.6774194 24.616,63.1290323 C25.432,61.7580645 26.248,60.1129032 27.336,58.1935484 C28.696,55.4516129 29.512,52.7096774 30.328,50.2419355 C29.24,46.9516129 28.696,45.0322581 29.784,41.1935484 C30.056,40.0967742 30.872,39 31.96,39 L32.504,39 C33.048,39 33.592,39.2741935 34.136,39.5483871 C36.04,41.4677419 35.224,45.8548387 34.136,49.4193548 L34.136,49.6935484 C35.224,52.7096774 36.856,55.1774194 38.488,56.8225806 C39.304,57.3709677 39.848,57.9193548 40.936,58.4677419 C42.296,58.4677419 43.384,58.1935484 44.472,58.1935484 C47.736,58.1935484 49.912,58.7419355 50.728,60.1129032 C51,60.6612903 51,61.2096774 51,61.7580645 C50.728,62.0322581 50.456,62.8548387 49.912,63.4032258 L49.912,63.4032258 L49.912,63.4032258 Z M32.232,52.7096774 C31.688,54.6290323 30.6,56.8225806 29.512,59.2903226 C28.968,60.3870968 28.424,61.2096774 27.88,62.3064516 L28.152,62.3064516 L28.424,62.3064516 C31.96,60.9354839 35.224,60.1129032 37.4,59.8387097 C36.856,59.5645161 36.584,59.2903226 36.312,59.016129 C34.952,57.3709677 33.32,55.1774194 32.232,52.7096774 L32.232,52.7096774 L32.232,52.7096774 Z M48.824,61.2096774 C48.552,60.9354839 47.464,60.1129032 43.656,60.1129032 L43.112,60.1129032 C43.112,60.1129032 43.112,60.1129032 43.112,60.3870968 C45.016,61.2096774 46.92,61.7580645 48.28,61.7580645 L48.824,61.7580645 L49.096,61.7580645 C49.096,61.7580645 49.096,61.7580645 49.096,61.483871 C49.096,61.483871 48.824,61.483871 48.824,61.2096774 L48.824,61.2096774 L48.824,61.2096774 Z M23.8,65.3225806 C23.256,65.5967742 22.712,65.8709677 22.44,66.1451613 C20.536,67.7903226 19.176,69.7096774 18.904,70.5322581 C20.536,70.2580645 22.168,68.6129032 23.8,65.3225806 L23.8,65.3225806 L23.8,65.3225806 Z M31.96,46.4032258 C32.232,45.3064516 32.504,44.7580645 32.504,43.9354839 L32.504,43.3870968 C32.776,42.016129 32.776,40.9193548 32.504,40.6451613 C32.504,40.6451613 32.504,40.6451613 32.504,40.3709677 L32.232,40.0967742 C32.232,40.0967742 32.232,40.3709677 31.96,40.3709677 C31.416,42.016129 31.416,43.9354839 31.96,46.4032258 L31.96,46.4032258 L31.96,46.4032258 Z M68,24 L46.0049466,24 C44.8976452,24 44,23.1029738 44,21.9950534 L44,0 L68,24 L68,24 L68,24 Z"></path>
                </g>
            </g>
        </g>
    </g>
</svg>

<svg width="68" height="90" xmlns="http://www.w3.org/2000/svg"><path d="M42.993 28A2.992 2.992 0 0140 25.007V0H3.666A3.665 3.665 0 000 3.668v82.664A3.674 3.674 0 003.68 90h60.64A3.683 3.683 0 0068 86.322V28H42.993zm6.919 35.403c-.544.274-1.36.549-2.448.549-2.176 0-5.44-.549-8.16-1.92-4.624.549-8.16 1.097-10.88 2.194-.272 0-.272 0-.544.274-3.264 5.758-5.984 8.5-8.16 8.5-.544 0-.816 0-1.088-.274l-1.36-.823v-.274C17 71.081 17 70.806 17 70.259c.272-1.372 1.904-3.84 5.168-5.759.544-.274 1.36-.823 2.448-1.371.816-1.37 1.632-3.016 2.72-4.935 1.36-2.742 2.176-5.484 2.992-7.952-1.088-3.29-1.632-5.21-.544-9.048C30.056 40.097 30.872 39 31.96 39h.544c.544 0 1.088.274 1.632.548 1.904 1.92 1.088 6.307 0 9.871v.275c1.088 3.016 2.72 5.483 4.352 7.129.816.548 1.36 1.096 2.448 1.645 1.36 0 2.448-.274 3.536-.274 3.264 0 5.44.548 6.256 1.919.272.548.272 1.097.272 1.645-.272.274-.544 1.097-1.088 1.645zM32.232 52.71c-.544 1.919-1.632 4.113-2.72 6.58-.544 1.097-1.088 1.92-1.632 3.016h.544c3.536-1.37 6.8-2.193 8.976-2.467-.544-.274-.816-.549-1.088-.823-1.36-1.645-2.992-3.839-4.08-6.306zm16.592 8.5c-.272-.275-1.36-1.097-5.168-1.097h-.544v.274c1.904.823 3.808 1.371 5.168 1.371H49.096v-.274s-.272 0-.272-.274zM23.8 65.323c-.544.274-1.088.548-1.36.822-1.904 1.645-3.264 3.565-3.536 4.387 1.632-.274 3.264-1.92 4.896-5.21zm8.16-18.92c.272-1.097.544-1.645.544-2.468v-.548c.272-1.37.272-2.468 0-2.742v-.274l-.272-.274s0 .274-.272.274c-.544 1.645-.544 3.564 0 6.032zM68 24H46.005A2.005 2.005 0 0144 21.995V0l24 24z" fill-rule="evenodd"/></svg>
